X: 123
T: Xiang nian nin a, qinai de ren Well, I go for my native land!
%%abc-version 2.0
%%abcx-abcm2ps-target-version 5.9.1 (29 Sep 2008)
%%abc-creator hum2abc beta
%%abcx-conversion-date 2013/10/02 07:44:27
%%abc-edited-by Helmut Schaffrath
%%humdrum-veritas 2574608661
%%humdrum-veritas-data 3673921785
%%continueall 1
%%barnumbers 0
L: 1/4
M: 2/4
K: C
G/G3/ [I:setbarnb 1]| 
GD | 
GE | 
G2 | 
G// G//G3/ | 
GD | 
GE | 
D2 | 
CC | 
CA, | 
CD | 
E2 | 
D2 | 
D2 | 
C | 
A, | 
CE | 
G2 |]  



